svgs/solid/train.svg

<svg xmlns="http://www.w3.org/2000/svg" viewBox="0 0 448 512"><!-- Font Awesome Pro 6.0.0-alpha2 by @fontawesome - https://fontawesome.com License - https://fontawesome.com/license (Commercial License) --><path d="M352 0H96C42.98 0 0 42.98 0 96V352C0 401.504 37.611 441.779 85.736 446.965L34.359 498.342C29.32 503.383 32.889 512 40.016 512H81.949C86.193 512 90.264 510.314 93.264 507.312L152.578 448H295.422L354.736 507.312C357.736 510.314 361.807 512 366.051 512H407.984C415.111 512 418.68 503.383 413.641 498.342L362.264 446.965C410.389 441.779 448 401.504 448 352V96C448 42.98 405.02 0 352 0ZM224 368C197.562 368 176 346.438 176 320S197.562 272 224 272S272 293.562 272 320S250.438 368 224 368ZM384 192C384 209.6 369.6 224 352 224H96C78.4 224 64 209.6 64 192V96C64 78.4 78.4 64 96 64H352C369.6 64 384 78.4 384 96V192Z"/></svg>

<svg xmlns="http://www.w3.org/2000/svg" viewBox="0 0 448 512"><!--! Font Awesome Pro 6.0.0-alpha3 by @fontawesome - https://fontawesome.com License - https://fontawesome.com/license (Commercial License) --><path d="M352 0H96C42.98 0 0 42.98 0 96v256c0 49.5 37.61 89.78 85.73 94.96l-51.38 51.38C29.32 503.4 32.88 512 40.01 512h41.94c4.244 0 8.314-1.686 11.31-4.688L152.6 448h142.8l59.31 59.31C357.7 510.3 361.8 512 366.1 512h41.94c7.127 0 10.7-8.617 5.656-13.66l-51.38-51.38C410.4 441.8 448 401.5 448 352V96C448 42.98 405 0 352 0zM224 368c-26.44 0-48-21.56-48-48S197.6 272 224 272s48 21.56 48 48S250.4 368 224 368zM384 192c0 17.6-14.4 32-32 32H96C78.4 224 64 209.6 64 192V96c0-17.6 14.4-32 32-32h256c17.6 0 32 14.4 32 32V192z"/></svg>
